assets/images/online.svg

<svg width="29" height="21" viewBox="0 0 29 21" fill="none" xmlns="http://www.w3.org/2000/svg">
<path d="M24.244 20.244C23.751 20.737 22.968 20.737 22.475 20.244C21.982 19.751 21.982 18.968 22.475 18.475C26.883 14.067 26.883 6.90402 22.475 2.49602C21.982 2.00302 21.982 1.22002 22.475 0.727018C22.707 0.495018 23.026 0.350018 23.345 0.350018C23.664 0.350018 23.983 0.466019 24.215 0.727018C29.609 6.12102 29.609 14.879 24.244 20.244Z" fill="#6611F1"/>
<path d="M20.097 16.1261C19.604 16.6191 18.821 16.6191 18.328 16.1261C17.835 15.6331 17.835 14.8501 18.328 14.3571C20.445 12.2401 20.474 8.7601 18.328 6.6431C17.835 6.1501 17.835 5.3671 18.328 4.8741C18.56 4.6421 18.879 4.4971 19.198 4.4971C19.517 4.4971 19.836 4.6131 20.068 4.8741C23.229 7.9771 23.2 13.0231 20.097 16.1261Z" fill="#6611F1"/>
<path d="M6.52493 18.475C7.01793 18.968 7.01793 19.751 6.52493 20.244C6.03193 20.737 5.24893 20.737 4.75593 20.244C-0.609072 14.879 -0.609072 6.12102 4.75593 0.75602C4.98793 0.524021 5.30693 0.379019 5.62593 0.379019C5.94493 0.379019 6.26393 0.49502 6.49593 0.75602C6.98893 1.24902 6.98893 2.03202 6.49593 2.52502C2.11693 6.90402 2.11693 14.067 6.52493 18.475Z" fill="#6611F1"/>
<path d="M10.6429 14.3571C11.1359 14.8501 11.1359 15.6331 10.6429 16.1261C10.1499 16.6191 9.36688 16.6191 8.87388 16.1261C5.77088 13.0231 5.77088 7.9771 8.87388 4.8741C9.10588 4.6421 9.42488 4.4971 9.74388 4.4971C10.0629 4.4971 10.3819 4.6131 10.6139 4.8741C11.1069 5.3671 11.1069 6.1501 10.6139 6.6431C8.52588 8.7601 8.52588 12.2401 10.6429 14.3571Z" fill="#6611F1"/>
<path d="M14.5001 8.38319C15.6692 8.38319 16.6171 9.331 16.6171 10.5002C16.6171 11.6694 15.6692 12.6172 14.5001 12.6172C13.3309 12.6172 12.3831 11.6694 12.3831 10.5002C12.3831 9.331 13.3309 8.38319 14.5001 8.38319Z" fill="#6611F1"/>
</svg>

<svg width="29" height="21" fill="none" xmlns="http://www.w3.org/2000/svg"><path d="M24.244 20.244a1.243 1.243 0 01-1.769 0 1.243 1.243 0 010-1.769c4.408-4.408 4.408-11.571 0-15.979a1.243 1.243 0 010-1.769c.232-.232.551-.377.87-.377.319 0 .638.116.87.377 5.394 5.394 5.394 14.152.029 19.517z" fill="#6611F1"/><path d="M20.097 16.126a1.243 1.243 0 01-1.769 0 1.243 1.243 0 010-1.769c2.117-2.117 2.146-5.597 0-7.714a1.243 1.243 0 010-1.769c.232-.232.551-.377.87-.377.319 0 .638.116.87.377 3.161 3.103 3.132 8.15.029 11.252zM6.525 18.475a1.243 1.243 0 010 1.769 1.243 1.243 0 01-1.77 0C-.608 14.879-.608 6.121 4.756.756c.233-.232.552-.377.87-.377.32 0 .639.116.87.377a1.243 1.243 0 010 1.769c-4.378 4.379-4.378 11.542.03 15.95z" fill="#6611F1"/><path d="M10.643 14.357a1.243 1.243 0 010 1.77 1.243 1.243 0 01-1.77 0c-3.102-3.104-3.102-8.15 0-11.253.233-.232.552-.377.87-.377.32 0 .639.116.87.377a1.243 1.243 0 010 1.77c-2.087 2.116-2.087 5.596.03 7.713zM14.5 8.383a2.117 2.117 0 110 4.234 2.117 2.117 0 010-4.234z" fill="#6611F1"/></svg>
